X:164
T:Reel 164
M:4/4
K:Dmaj
L:1/8
AG|:FDD (3DCD A,DD>E (3FED |FDAF G2AG|F>D (3DDD A,DAG|FDEC D2:||2FAE^C DED2|ED|CDAB A2BA|GFGF E2 (3EFG |Addc dABd|AGFG E2 (3ABc |dAdc BAGF|GFEF GFED|FDED  (3DGF  (3Bcd AGFE | (3FGA Bc dBAF|
